X:1
T:445 - Deves Divulgar
T:Letra: SalomÃ£o Luiz Ginsburg (1867-1927)
T:MÃºsica: Robert C. Marquis
M:4/4
L:1/8
Q:1/4=100
K:Ab
V:1
AB | "Ab"c3c d3c | "Eb"c2 B4 Bc | "Eb7"d3d e3d | "Ab"c4 z2 AB | c3c d3c | "Ab7"e2 "Db"d4 cB | "Ab/Eb"A3c "Eb7"B3A | "Ab"A4 z2 GA | "Eb7"B3B A3B | "Ab"c2 c4 c2 | "Db"d3d "Bb7"=d3d | "Eb"e4 z2 "Eb7"d2 | "Ab"c3c B2 c2 | "Ab7"e2 "Db"d4 B2 | "Ab/Eb"A3c "Eb7"B3A | "Ab"A4z2 || zc | "Ab"c3E c3d | "Db"d3F d3d | "Ab"c3c e3c | "Eb"B4 z2 B2 | "Ab"c3c c2 "Ab7"e2 | "Db"ed- d4 B2 | "Ab/Eb"A3c "Eb7"B3A | "Ab"A2- "Db"A2- "Ab"HA2 |]
w: 1.~Oh, que be-lae do-cehis-tÃ³-ria Do bom Pai ce-les-ti-al, Que nos ven-doex-tra-vi-a-dos, Em pe-ri-go sem i-gual, En-viou seu Fi-lhoa-ma-do Pra to-dos nÃ³s sal-var! TÃ£o be-la his-tÃ³-ria, cren-te, Tu de-ves di-vul-gar!     Sim, tu, ir-mÃ£o, tens que con-tar    A his-tÃ³-ria de Je-sus;    Seus fei-tos e pa-la-vras    Tu de-ves di-vul-gar!__
w: 2.~Es-ta be-lahis-tÃ³-riaÃ© sem-pre Po-de-ro-sa pra sal-var, Trans-for-man-doe a-ben-Ã§oan-do Quem a Cris-to quer che-gar. Mas hÃ¡ mui-tos in-fe-li-zes Sem com-preen-der a luz; A e-les vai e con-ta Ahis-tÃ³-ria de Je-sus!
w: 3.~Oh, nÃ£o di-gas que nÃ£o po-des Es-sahis-tÃ³-riaa-nun-ci-ar! Fa-ze tu-doao teu al-can-ce Pa-ra Cris-to sem-prehon-rar! Va-mos, cren-tes, pro-cla-man-do Je-sus, o Sal-va-dor A be-lae do-cehis-tÃ³-ria De Deus e seu a-mor!
W: 
W: 
W: 1. Oh, que bela e doce histÃ³ria
W: Do bom Pai celestial,
W: Que nos vendo extraviados,
W: Em perigo sem igual,
W: Enviou seu Filho amado
W: Pra todos nÃ³s salvar!
W: TÃ£o bela histÃ³ria, crente,
W: Tu deves divulgar!
W: 
W:    (Estribilho)
W:    Sim, tu, irmÃ£o, tens que contar
W:    A histÃ³ria de Jesus;
W:    Seus feitos e palavras
W:    Tu deves divulgar!
W: 
W:
W:
W: 2. Esta bela histÃ³ria Ã© sempre
W: Poderosa pra salvar,
W: Transformando e abenÃ§oando
W: Quem a Cristo quer chegar.
W: Mas hÃ¡ muitos infelizes
W: Sem compreender a luz;
W: A eles vai e conta
W: A histÃ³ria de Jesus!
W: 
W: 3. Oh, nÃ£o digas que nÃ£o podes
W: Essa histÃ³ria anunciar!
W: Faze tudo ao teu alcance
W: Para Cristo sempre honrar!
W: Vamos, crentes, proclamando
W: Jesus, o Salvador
W: A bela e doce histÃ³ria
W: De Deus e seu amor!
W:         
W: 				         
W:           

